theme-base/src/main/assets/themes/mapsforgeV3/base/symbols/db_poi_bus_station.svg

<svg enable-background="new 0 0 48 48" height="48" viewBox="0 0 48 48" width="48" xmlns="http://www.w3.org/2000/svg"><path d="m8 33c0 1.76.78 3.34 2 4.439v3.561c0 1.1.9 2 2 2h2c1.1 0 2-.9 2-2v-2h16v2c0 1.1.9 2 2 2h2c1.1 0 2-.9 2-2v-3.561c1.221-1.1 2-2.68 2-4.439v-20c0-7-7.16-8-16-8s-16 1-16 8zm7 2c-1.66 0-3-1.34-3-3s1.34-3 3-3 3 1.34 3 3-1.34 3-3 3zm18 0c-1.66 0-3-1.34-3-3s1.34-3 3-3 3 1.34 3 3-1.34 3-3 3zm3-12h-24v-10h24z"/></svg>

<?xml version="1.0" encoding="utf-8"?>
<!-- Generator: Adobe Illustrator 15.0.2, SVG Export Plug-In . SVG Version: 6.00 Build 0)  -->
<!DOCTYPE svg PUBLIC "-//W3C//DTD SVG 1.1//EN" "http://www.w3.org/Graphics/SVG/1.1/DTD/svg11.dtd">
<svg version="1.1" id="Vrstva_3" xmlns="http://www.w3.org/2000/svg" xmlns:xlink="http://www.w3.org/1999/xlink" x="0px" y="0px"
	 width="48px" height="48px" viewBox="0 0 48 48" enable-background="new 0 0 48 48" xml:space="preserve">
<path d="M8,33c0,1.76,0.78,3.34,2,4.439V41c0,1.1,0.9,2,2,2h2c1.1,0,2-0.9,2-2v-2h16v2c0,1.1,0.9,2,2,2h2c1.1,0,2-0.9,2-2v-3.561
	c1.221-1.1,2-2.68,2-4.439V13c0-7-7.16-8-16-8S8,6,8,13V33z M15,35c-1.66,0-3-1.34-3-3s1.34-3,3-3s3,1.34,3,3S16.66,35,15,35z
	 M33,35c-1.66,0-3-1.34-3-3s1.34-3,3-3s3,1.34,3,3S34.66,35,33,35z M36,23H12V13h24V23z"/>
</svg>
